icons/circle/48/userinfo.svg

<svg xmlns="http://www.w3.org/2000/svg" viewBox="0 0 48 48">
 <defs>
  <linearGradient id="linearGradient3764" x1="1" x2="47" gradientUnits="userSpaceOnUse" gradientTransform="matrix(0,-1,1,0,-1.5e-6,47.999998)">
   <stop style="stop-color:#71cc66;stop-opacity:1"/>
   <stop offset="1" style="stop-color:#7fd175;stop-opacity:1"/>
  </linearGradient>
 </defs>
 <g>
  <path d="m 36.31 5 c 5.859 4.062 9.688 10.831 9.688 18.5 c 0 12.426 -10.07 22.5 -22.5 22.5 c -7.669 0 -14.438 -3.828 -18.5 -9.688 c 1.037 1.822 2.306 3.499 3.781 4.969 c 4.085 3.712 9.514 5.969 15.469 5.969 c 12.703 0 23 -10.298 23 -23 c 0 -5.954 -2.256 -11.384 -5.969 -15.469 c -1.469 -1.475 -3.147 -2.744 -4.969 -3.781 z m 4.969 3.781 c 3.854 4.113 6.219 9.637 6.219 15.719 c 0 12.703 -10.297 23 -23 23 c -6.081 0 -11.606 -2.364 -15.719 -6.219 c 4.16 4.144 9.883 6.719 16.219 6.719 c 12.703 0 23 -10.298 23 -23 c 0 -6.335 -2.575 -12.06 -6.719 -16.219 z" style="opacity:0.05"/>
  <path d="m 41.28 8.781 c 3.712 4.085 5.969 9.514 5.969 15.469 c 0 12.703 -10.297 23 -23 23 c -5.954 0 -11.384 -2.256 -15.469 -5.969 c 4.113 3.854 9.637 6.219 15.719 6.219 c 12.703 0 23 -10.298 23 -23 c 0 -6.081 -2.364 -11.606 -6.219 -15.719 z" style="opacity:0.1"/>
  <path d="m 31.25 2.375 c 8.615 3.154 14.75 11.417 14.75 21.13 c 0 12.426 -10.07 22.5 -22.5 22.5 c -9.708 0 -17.971 -6.135 -21.12 -14.75 a 23 23 0 0 0 44.875 -7 a 23 23 0 0 0 -16 -21.875 z" style="opacity:0.2"/>
 </g>
 <g>
  <path d="m 24 1 c 12.703 0 23 10.297 23 23 c 0 12.703 -10.297 23 -23 23 -12.703 0 -23 -10.297 -23 -23 0 -12.703 10.297 -23 23 -23 z" style="fill:url(#linearGradient3764);fill-opacity:1"/>
 </g>
 <g>
  <path d="m 40.03 7.531 c 3.712 4.084 5.969 9.514 5.969 15.469 0 12.703 -10.297 23 -23 23 c -5.954 0 -11.384 -2.256 -15.469 -5.969 4.178 4.291 10.01 6.969 16.469 6.969 c 12.703 0 23 -10.298 23 -23 0 -6.462 -2.677 -12.291 -6.969 -16.469 z" style="opacity:0.1"/>
 </g>
 <g transform="matrix(3.543307,0,0,3.543307,-2.8031492e-8,0.00315058)">
  <path d="m 7.06 2.822 c -2.338 0 -4.233 1.895 -4.233 4.233 0 2.338 1.895 4.233 4.233 4.233 2.338 0 4.233 -1.895 4.233 -4.233 0 -2.338 -1.895 -4.233 -4.233 -4.233 z" style="fill:#000;opacity:0.1;fill-opacity:1;stroke:none"/>
  <g>
   <ellipse cx="-15.542" cy="20.04" rx="9.218" ry="9.52" transform="matrix(0.42864748,0,0,0.41501558,13.435426,-1.5453886)" style="fill:#51c3c9;fill-opacity:1;stroke:none"/>
   <path d="m 6.491 5.644 0 3.387 0.564 0 0 -3.387 z" style="fill:#eee;fill-opacity:1;display:inline"/>
   <path d="M 7.06,4.798 C 7.06,4.954 6.934,5.08 6.778,5.08 6.622,5.08 6.496,4.954 6.496,4.798 c 0,-0.156 0.126,-0.282 0.282,-0.282 0.156,0 0.282,0.126 0.282,0.282 z" style="fill:#eee;fill-opacity:1;display:inline"/>
   <path d="M 24,9 C 15.716,9 9,15.716 9,24 9,32.284 15.716,39 24,39 32.284,39 39,32.284 39,24 39,15.716 32.284,9 24,9 m 0,2 c 7.18,0 13,5.82 13,13 0,7.18 -5.82,13 -13,13 -7.18,0 -13,-5.82 -13,-13 0,-7.18 5.82,-13 13,-13 z" transform="scale(0.28222223,0.28222223)" style="fill:#eee;fill-opacity:1;stroke:none"/>
  </g>
 </g>
</svg>

<svg xmlns="http://www.w3.org/2000/svg" viewBox="0 0 48 48">
  <defs>
    <linearGradient id="a" x1="1" x2="47" gradientUnits="userSpaceOnUse" gradientTransform="rotate(-90 24 24)">
      <stop stop-color="#71cc66"/>
      <stop offset="1" stop-color="#7fd175"/>
    </linearGradient>
  </defs>
  <path d="M36.31 5c5.859 4.062 9.688 10.831 9.688 18.5 0 12.426-10.07 22.5-22.5 22.5-7.669 0-14.438-3.828-18.5-9.688a23.24 23.24 0 0 0 3.781 4.969 22.923 22.923 0 0 0 15.469 5.969c12.703 0 23-10.298 23-23a22.92 22.92 0 0 0-5.969-15.469A23.216 23.216 0 0 0 36.31 5zm4.969 3.781A22.911 22.911 0 0 1 47.498 24.5c0 12.703-10.297 23-23 23a22.909 22.909 0 0 1-15.719-6.219C12.939 45.425 18.662 48 24.998 48c12.703 0 23-10.298 23-23 0-6.335-2.575-12.06-6.719-16.219z" opacity=".05"/>
  <path d="M41.28 8.781a22.923 22.923 0 0 1 5.969 15.469c0 12.703-10.297 23-23 23A22.92 22.92 0 0 1 8.78 41.281 22.911 22.911 0 0 0 24.499 47.5c12.703 0 23-10.298 23-23A22.909 22.909 0 0 0 41.28 8.781z" opacity=".1"/>
  <path d="M31.25 2.375C39.865 5.529 46 13.792 46 23.505c0 12.426-10.07 22.5-22.5 22.5-9.708 0-17.971-6.135-21.12-14.75a23 23 0 0 0 44.875-7 23 23 0 0 0-16-21.875z" opacity=".2"/>
  <path d="M24 1c12.703 0 23 10.297 23 23S36.703 47 24 47 1 36.703 1 24 11.297 1 24 1z" fill="url(#a)"/>
  <g>
    <path d="M40.03 7.531A22.922 22.922 0 0 1 45.999 23c0 12.703-10.297 23-23 23A22.92 22.92 0 0 1 7.53 40.031C11.708 44.322 17.54 47 23.999 47c12.703 0 23-10.298 23-23 0-6.462-2.677-12.291-6.969-16.469z" opacity=".1"/>
  </g>
  <g>
    <path d="M25.016 10.002c-8.285 0-15 6.715-15 15 0 8.283 6.715 14.998 15 14.998 8.284 0 14.999-6.715 14.999-14.999s-6.715-14.999-15-14.999z" opacity=".1"/>
    <g transform="matrix(3.5433 0 0 3.5433 0 .003)">
      <ellipse cx="-15.542" cy="20.04" rx="9.218" ry="9.52" transform="matrix(.42865 0 0 .41502 13.435 -1.545)" fill="#51c3c9"/>
      <path d="M6.491 5.644v3.387h.564V5.644zM7.06 4.798a.282.282 0 1 1-.563 0 .282.282 0 0 1 .563 0z" fill="#eee"/>
      <path d="M6.773 2.54a4.233 4.233 0 1 0 0 8.467 4.233 4.233 0 0 0 0-8.467m0 .564a3.669 3.669 0 1 1 0 7.338 3.669 3.669 0 0 1 0-7.338z" fill="#eee"/>
    </g>
  </g>
</svg>
